source/img/icons/icon-fb.svg

<svg width="30" height="30" viewBox="0 0 30 30" fill="none" xmlns="http://www.w3.org/2000/svg">
<path d="M30 15.0913C30 6.75456 23.2863 0 15 0C6.71371 0 0 6.75456 0 15.0913C0 22.6369 5.44355 28.9047 12.6411 30V19.4726H8.83064V15.0913H12.6411V11.8053C12.6411 8.03245 14.879 5.90264 18.2661 5.90264C19.9597 5.90264 21.6532 6.2069 21.6532 6.2069V9.91886H19.7782C17.9032 9.91886 17.2984 11.0751 17.2984 12.2921V15.0913H21.4718L20.8065 19.4726H17.2984V30C24.496 28.9047 30 22.6369 30 15.0913Z" fill="white"/>
</svg>

<svg width="30" height="30" fill="none" xmlns="http://www.w3.org/2000/svg"><path d="M30 15.091C30 6.755 23.286 0 15 0S0 6.755 0 15.091C0 22.637 5.444 28.905 12.641 30V19.473h-3.81V15.09h3.81v-3.286c0-3.773 2.238-5.902 5.625-5.902 1.694 0 3.387.304 3.387.304v3.712h-1.875c-1.875 0-2.48 1.156-2.48 2.373v2.8h4.174l-.666 4.38h-3.508V30C24.496 28.905 30 22.637 30 15.091Z" fill="#fff"/></svg>
